!!!!SEGMENT: pl-kk--kk-i-493--004_anonim--o-salutaris-hostia.krn
!!!cenid: 17xx:1838
!!!COM: Anonim
!!!COM-rismid: pe30004985
!!!CDT:
!!!CNT:
!!!OTL: O salutaris hostia
!!!PDT:
!!!AGN:
!!!SMS-siglum: PL-Kk
!!!SMS-shelfmark: Kk.I.493
!!!SMS-shelfwork: 004 W
!!!SMS-variant:
!!!SMS-altvar:
!!!NIFC-rismid: 1001136772
!!!URL-scan: http://repozytorium.nifc.pl/skany/pl-kk-nut--i-493
!!!ONB-nifc:
!!!AIN: 1 alto 1 empty 1 soprn 1 tenor
!!!key:
**kern	**text	**kern	**text	**kern	**text	**kern	**text
*part4	*part4	*part3	*part3	*part2	*part2	*part1	*part1
*group1	*	*group1	*	*group1	*	*group1	*
*staff4	*staff4	*staff3	*staff3	*staff2	*staff2	*staff1	*staff1
*Iempty	*	*Itenor	*	*Ialto	*	*Isoprn	*
*I"Baſso	*	*I"Tenore	*	*I"Alto	*	*I"Soprano	*
*I'B	*	*I'T	*	*I'A	*	*I'S	*
*clefF4	*	*clefC4	*	*clefC3	*	*clefC1	*
*k[]	*	*k[]	*	*k[]	*	*k[]	*
*C:	*	*C:	*	*C:	*	*C:	*
*M2/2	*	*M2/2	*	*M2/2	*	*M2/2	*
*met(c|)	*	*met(c|)	*	*met(c|)	*	*met(c|)	*
=1	=1	=1	=1	=1	=1	=1	=1
!LO:TX:a:t=Antiph&colon; 4.	!	!LO:TX:a:t=Antiph&colon; 4.	!	!LO:TX:a:t=Antiph&colon; 4.	!	!LO:TX:a:t=Antiph&colon; 4.	!
1C	O	1c	O	1e	O	1g	O
=2	=2	=2	=2	=2	=2	=2	=2
*2\right	*	*2\right	*	*2\right	*	*2\right	*
2BB/	ſa-	2d\	sa-	2f\	sa-	2g\	ſa-
2BB/	-lu-	2d\	-lu-	2f\	-lu-	2g\	-lu-
=3	=3	=3	=3	=3	=3	=3	=3
2C/	-ta-	2c\	-ta-	2e\	-ta-	2g\	-ta-
2C/	-ris	2c\	-ris	2e\	-ris	2g\	-ris
=4	=4	=4	=4	=4	=4	=4	=4
2.F\	hos-	2.c\	hos-	2.f\	hos-	2.a\	hos-
4F\	-ti-	4c\	-ti-	4f\	-ti-	4a\	-ti-
!LO:LB:g=original	!	!LO:LB:g=original	!	!LO:LB:g=original	!	!LO:LB:g=original	!
=5	=5	=5	=5	=5	=5	=5	=5
2F\	-a.	2c\	-a	2e\	-a	2g\	-a
!	!	!	!	!	!	!LO:SIC:v:l:s=quae	!
2r	.	2r	.	2r	.	2g\	que
=6	=6	=6	=6	=6	=6	=6	=6
2r	.	2r	.	2r	.	[<1ee	Cae-
!LO:SIC:v:l:s=quae	!	!LO:SIC:v:l:s=quae	!	!LO:SIC:v:l:s=quae	!	!	!
2C/	que	2c\	que	2g\	que	.	.
=7	=7	=7	=7	=7	=7	=7	=7
2A\	cae-	2c\	cae-	2cc\	cae-	2ee\]	.
!	!	!	!	!	!	!LO:SIC:v:l:s=li	!
2A\	-li	2c\	-li	2a\	-li	2ee\	-lis
=8	=8	=8	=8	=8	=8	=8	=8
2F\	pan-	2d\	pan-	2a\	pan-	2ff\	pan-
2F#X\	-dis	2c\	-dis	2a\	-dis	2ee\	-dis
!LO:LB:g=original	!	!	!	!	!	!LO:LB:g=original	!
=9	=9	=9	=9	=9	=9	=9	=9
!LO:SIC:v:l:s=os-	!	!LO:SIC:v:l:s=os-	!	!LO:SIC:v:l:s=os-	!	!LO:SIC:v:l:s=os-	!
2.G\	hos-	2.c\	hos-	2.g\	hos-	2.ee\	hos-
4G\	-ti-	4B\	-ti	4g\	-ti	4dd\	-ti-
!	!	!LO:LB:g=original	!	!LO:LB:g=original	!	!	!
=10	=10	=10	=10	=10	=10	=10	=10
2G\	-um	2B\	-um	2g\	-um	2dd\	-um
!LO:SIC:v:l:s=quae	!	!LO:SIC:v:l:s=quae	!	!	!	!LO:SIC:v:l:s=quae	!
2G#X\	que	2B\	que	2e\	quae	2ee\	que
=11	=11	=11	=11	=11	=11	=11	=11
2A\	cae-	2c\	cae-	2e\	cae-	2cc\	Cae-
!	!	!	!	!	!	!LO:SIC:v:l:s=li	!
2E\	-li	2B\	-li	2d\	-li	2g#X\	-lis
=12	=12	=12	=12	=12	=12	=12	=12
2F\	pan-	2A\	pan-	2c\	pan-	2.a\	pan-
2D#X\	-dis	2c\	-dis	2f#X\	-dis	.	.
.	.	.	.	.	.	4a\	-dis
!LO:LB:g=original	!	!	!	!	!	!LO:LB:g=original	!
=13	=13	=13	=13	=13	=13	=13	=13
!LO:SIC:v:l:s=os-	!	!LO:SIC:v:l:s=os-	!	!LO:SIC:v:l:s=os-	!	!LO:SIC:v:l:s=os-	!
2.E\	hos-	2.B\	hos-	2.e\	hos-	2a\	hos-
.	.	.	.	.	.	2g#X\	-ti-
4E\	-ti-	4B\	-ti-	4e\	-ti-	.	.
=14	=14	=14	=14	=14	=14	=14	=14
1AA	-um	1A	-um	1e	-um	1a	-um
!	!	!LO:LB:g=original	!	!LO:LB:g=original	!	!	!
=15	=15	=15	=15	=15	=15	=15	=15
!LO:SIC:v:l:s=bel-	!	!	!	!LO:SIC:v:l:s=bel-	!	!LO:SIC:v:l:s=bel-	!
2E\	pel-	2c\	bel-	2g\	pel-	2cc\	pel-
2E\	-la	2c\	-la	2g\	-la	2cc\	-la
=16	=16	=16	=16	=16	=16	=16	=16
!	!	!	!	!LO:SIC:v:l:s=pre-	!	!LO:SIC:v:l:s=pre-	!
2F\	pre-	2c\	pre-	2f\	prae-	2a\	prae-
2C/	-munt	2c\	-munt	2e\	-munt	2g\	-munt
!LO:LB:g=original	!	!	!	!	!	!LO:LB:g=original	!
=17	=17	=17	=17	=17	=17	=17	=17
!LO:SIC:v:l:s=bel-	!	!	!	!LO:SIC:v:l:s=bel-	!	!LO:SIC:v:l:s=bel-	!
2E\	pel-	2c\	bel-	2g\	pel-	2cc\	pel-
2E\	-la	2c\	-la	2g\	-la	2cc\	-la
=18	=18	=18	=18	=18	=18	=18	=18
!	!	!	!	!LO:SIC:v:l:s=pre-	!	!LO:SIC:v:l:s=pre-	!
2G\	pre-	2d\	pre-	2b\	prae-	2ff\	prae-
2c\	-munt	2e\	-munt	2cc\	-munt	2ee\	-munt
!	!	!LO:LB:g=original	!	!LO:LB:g=original	!	!	!
=19	=19	=19	=19	=19	=19	=19	=19
1A	hos-	1c	hos-	1e	hos-	1cc	hos-
=20	=20	=20	=20	=20	=20	=20	=20
2.A\	-ti-	2.c\	-ti-	2.f#X\	-ti-	2.cc\	-ti-
4A\	-li-	4c\	-li-	4f#\	-li-	4cc\	-li-
!	!	!	!	!	!	!LO:LB:g=original	!
=21	=21	=21	=21	=21	=21	=21	=21
2G\	-a	2d\	-a	2g\	-a	2b\	-a
2B\	da	2d\	da	2g\	da	2g\	da
!LO:LB:g=original	!	!	!	!	!	!	!
=22	=22	=22	=22	=22	=22	=22	=22
!LO:SIC:v:l:s=ro-	!	!	!	!LO:SIC:v:l:s=ro-	!	!LO:SIC:v:l:s=ro-	!
2c\	ra-	2e\	ro-	2g\	ra-	2ee\	ra-
!LO:SIC:v:l:s=-bur	!	!	!	!LO:SIC:v:l:s=-bur	!	!LO:SIC:v:l:s=-bur	!
2G\	-bor	2B\	-bur	2fn\	-bor	2dd\	-bor
!	!	!LO:LB:g=original	!	!LO:LB:g=original	!	!	!
=23	=23	=23	=23	=23	=23	=23	=23
2A\	fer	2c\	fer	2e\	fer	2cc\	fer
2E\	au-	2G#X/	au-	2d\	au-	2b\	au-
=24	=24	=24	=24	=24	=24	=24	=24
2.F\	-xi-	2.A/	-xi-	2.c\	-xi-	2.a\	-xi-
4F\	-li-	4Gn/	-li-	4d\	-li-	4b\	-li-
!	!	!	!	!	!	!LO:LB:g=original	!
=25	=25	=25	=25	=25	=25	=25	=25
2E\	-um	2G/	-um	2e\	-um	2cc\	-um
2C/	au-	2G/	au-	2e\	au-	2cc\	au-
=26	=26	=26	=26	=26	=26	=26	=26
[1GG	-xi-	1G	-xi-	1d	-xi-	1cc	-xi-
!LO:LB:g=original	!	!LO:LB:g=original	!	!	!	!	!
=27	=27	=27	=27	=27	=27	=27	=27
2GG/]	.	1G	-li-	1d	-li-	1b	-li-
2GG/	-li-	.	.	.	.	.	.
!	!	!	!	!LO:LB:g=original	!	!	!
=28	=28	=28	=28	=28	=28	=28	=28
2C/	-um	2G/	-um	2e\	-um	2cc\	-um
2C/	da	2G/	da	2e\	da	2cc\	da
=29	=29	=29	=29	=29	=29	=29	=29
!LO:SIC:v:l:s=ro-	!	!	!	!LO:SIC:v:l:s=ro-	!	!LO:SIC:v:l:s=ro-	!
2C/	ra-	2G/	ro-	2e\	ra-	2cc\	ra-
!LO:SIC:v:l:s=-bur	!	!	!	!LO:SIC:v:l:s=-bur	!	!LO:SIC:v:l:s=-bur	!
2E\	-bor	2c\	-bur	2g\	-bor	2g\	-bor
!	!	!	!	!	!	!LO:LB:g=original	!
=30	=30	=30	=30	=30	=30	=30	=30
2F\	fer	2c\	fer	2f\	fer	2a\	fer
2BB/	au-	2c\	au-	2e\	au-	2g\	au-
!LO:LB:g=original	!	!LO:LB:g=original	!	!	!	!	!
=31	=31	=31	=31	=31	=31	=31	=31
[<1F	-xi-	[<1c	-xi-	[<1f	-xi-	[<1a	-xi-
!	!	!	!	!LO:LB:g=original	!	!	!
=32	=32	=32	=32	=32	=32	=32	=32
!	!	!	!	!LO:TX:b:t=P:problem=brak zakończenia ligatury	!	!	!
2F\]	.	2c\]	.	2f\]	.	2a\]	.
2F\	-li-	2c\	-li-	2f\	-li-	2a\	-li-
=33	=33	=33	=33	=33	=33	=33	=33
0C	-um.	0c	-um.	0e	-um.	0g	-um.
==	==	==	==	==	==	==	==
*-	*-	*-	*-	*-	*-	*-	*-
!!!system-decoration: [g1]
!!!RDF**kern: < = below
!!!ENC: Marta Lawrence
!!!END: 2021-01-02
!!!ENC: Tomasz Grochalski
!!!END: 2020-12-30
